public/luts/vintage-4.cube
#Generated with IWLTBAP LUT Generator
#Website: http://luts.iwltbap.com
TITLE "Vintage"
#LUT size
LUT_3D_SIZE 25
#LUT data points
0.007843 0.066667 0.078431
0.000000 0.066667 0.066667
0.000000 0.070588 0.070588
0.011765 0.066667 0.070588
0.027451 0.074510 0.074510
0.043137 0.078431 0.074510
0.074510 0.074510 0.074510
0.098039 0.074510 0.074510
0.133333 0.070588 0.082353
0.172549 0.070588 0.074510
0.227451 0.070588 0.074510
0.274510 0.058824 0.078431
0.329412 0.043137 0.078431
0.396078 0.027451 0.082353
0.462745 0.003922 0.078431
0.525490 0.003922 0.086275
0.596078 0.003922 0.078431
0.658824 0.003922 0.082353
0.721569 0.003922 0.090196
0.780392 0.003922 0.094118
0.839216 0.000000 0.101961
0.898039 0.000000 0.109804
0.949020 0.000000 0.121569
1.000000 0.003922 0.137255
1.000000 0.003922 0.149020
0.000000 0.070588 0.070588
0.000000 0.070588 0.078431
0.000000 0.070588 0.070588
0.011765 0.074510 0.070588
0.031373 0.074510 0.082353
0.043137 0.082353 0.078431
0.078431 0.078431 0.078431
0.105882 0.070588 0.074510
0.141176 0.078431 0.078431
0.184314 0.082353 0.078431
0.227451 0.074510 0.078431
0.278431 0.062745 0.074510
0.337255 0.050980 0.086275
0.407843 0.031373 0.086275
0.462745 0.011765 0.078431
0.533333 0.000000 0.086275
0.596078 0.000000 0.082353
0.658824 0.000000 0.090196
0.721569 0.000000 0.094118
0.780392 0.000000 0.090196
0.847059 0.000000 0.101961
0.898039 0.000000 0.109804
0.945098 0.003922 0.117647
0.996078 0.000000 0.133333
0.992157 0.003922 0.149020
0.000000 0.078431 0.074510
0.003922 0.082353 0.086275
0.000000 0.070588 0.078431
0.007843 0.086275 0.078431
0.019608 0.082353 0.078431
0.058824 0.082353 0.082353
0.070588 0.090196 0.066667
0.105882 0.086275 0.074510
0.156863 0.086275 0.078431
0.196078 0.086275 0.074510
0.239216 0.090196 0.086275
0.282353 0.082353 0.078431
0.345098 0.066667 0.082353
0.403922 0.050980 0.086275
0.474510 0.023529 0.082353
0.525490 0.003922 0.086275
0.600000 0.000000 0.082353
0.658824 0.003922 0.082353
0.729412 0.000000 0.094118
0.792157 0.000000 0.101961
0.847059 0.000000 0.094118
0.894118 0.003922 0.113725
0.945098 0.000000 0.125490
0.996078 0.000000 0.145098
0.992157 0.003922 0.164706
0.000000 0.094118 0.082353
0.000000 0.086275 0.086275
0.003922 0.082353 0.078431
0.003922 0.082353 0.078431
0.015686 0.086275 0.086275
0.050980 0.101961 0.074510
0.082353 0.101961 0.086275
0.121569 0.101961 0.086275
0.152941 0.094118 0.074510
0.200000 0.101961 0.082353
0.247059 0.101961 0.078431
0.294118 0.094118 0.078431
0.352941 0.086275 0.090196
0.415686 0.066667 0.074510
0.478431 0.058824 0.082353
0.541176 0.027451 0.090196
0.600000 0.003922 0.094118
0.666667 0.003922 0.094118
0.721569 0.000000 0.094118
0.784314 0.000000 0.101961
0.843137 0.003922 0.105882
0.890196 0.000000 0.117647
0.937255 0.000000 0.125490
0.988235 0.000000 0.145098
1.000000 0.074510 0.164706
0.007843 0.090196 0.094118
0.000000 0.098039 0.086275
0.000000 0.094118 0.094118
0.000000 0.098039 0.082353
0.015686 0.101961 0.090196
0.039216 0.101961 0.098039
0.074510 0.109804 0.090196
0.117647 0.117647 0.086275
0.168627 0.121569 0.074510
0.211765 0.117647 0.078431
0.250980 0.117647 0.078431
0.301961 0.117647 0.086275
0.360784 0.105882 0.090196
0.423529 0.105882 0.090196
0.482353 0.090196 0.082353
0.549020 0.082353 0.090196
0.607843 0.062745 0.090196
0.666667 0.035294 0.094118
0.725490 0.011765 0.098039
0.784314 0.000000 0.109804
0.850980 0.000000 0.129412
0.894118 0.003922 0.121569
0.933333 0.035294 0.125490
0.988235 0.082353 0.145098
1.000000 0.137255 0.172549
0.000000 0.113725 0.098039
0.007843 0.109804 0.098039
0.015686 0.113725 0.101961
0.015686 0.113725 0.101961
0.027451 0.113725 0.101961
0.039216 0.121569 0.101961
0.078431 0.129412 0.101961
0.117647 0.137255 0.113725
0.176471 0.145098 0.101961
0.231373 0.145098 0.094118
0.278431 0.149020 0.090196
0.329412 0.149020 0.090196
0.388235 0.145098 0.094118
0.447059 0.141176 0.094118
0.517647 0.133333 0.090196
0.580392 0.133333 0.090196
0.643137 0.117647 0.105882
0.694118 0.105882 0.113725
0.752941 0.101961 0.117647
0.815686 0.098039 0.117647
0.866667 0.101961 0.125490
0.909804 0.113725 0.137255
0.956863 0.137255 0.149020
1.000000 0.168627 0.160784
0.996078 0.215686 0.188235
0.007843 0.133333 0.121569
0.011765 0.133333 0.109804
0.019608 0.133333 0.113725
0.035294 0.141176 0.113725
0.047059 0.133333 0.121569
0.054902 0.145098 0.121569
0.078431 0.141176 0.129412
0.105882 0.156863 0.129412
0.160784 0.160784 0.113725
0.219608 0.168627 0.105882
0.282353 0.176471 0.094118
0.349020 0.184314 0.090196
0.407843 0.180392 0.094118
0.470588 0.176471 0.101961
0.525490 0.176471 0.105882
0.584314 0.168627 0.105882
0.647059 0.172549 0.105882
0.717647 0.168627 0.117647
0.760784 0.164706 0.121569
0.807843 0.164706 0.117647
0.854902 0.172549 0.129412
0.909804 0.188235 0.149020
0.960784 0.203922 0.168627
1.000000 0.231373 0.176471
1.000000 0.266667 0.200000
0.015686 0.164706 0.121569
0.019608 0.156863 0.133333
0.039216 0.164706 0.121569
0.054902 0.160784 0.125490
0.074510 0.160784 0.149020
0.082353 0.164706 0.137255
0.101961 0.168627 0.145098
0.125490 0.176471 0.149020
0.160784 0.188235 0.156863
0.207843 0.200000 0.149020
0.278431 0.211765 0.141176
0.352941 0.219608 0.121569
0.423529 0.223529 0.109804
0.486275 0.223529 0.109804
0.545098 0.227451 0.113725
0.600000 0.227451 0.117647
0.658824 0.223529 0.113725
0.713725 0.219608 0.121569
0.764706 0.219608 0.129412
0.815686 0.231373 0.145098
0.866667 0.239216 0.152941
0.913725 0.247059 0.156863
0.960784 0.258824 0.168627
1.000000 0.286275 0.200000
1.000000 0.317647 0.211765
0.050980 0.192157 0.145098
0.066667 0.192157 0.149020
0.078431 0.196078 0.156863
0.082353 0.200000 0.160784
0.101961 0.192157 0.160784
0.113725 0.196078 0.168627
0.137255 0.203922 0.164706
0.156863 0.207843 0.168627
0.180392 0.219608 0.184314
0.215686 0.223529 0.180392
0.270588 0.243137 0.180392
0.345098 0.250980 0.156863
0.419608 0.266667 0.152941
0.474510 0.278431 0.133333
0.549020 0.278431 0.125490
0.615686 0.270588 0.121569
0.662745 0.274510 0.121569
0.717647 0.278431 0.129412
0.764706 0.278431 0.137255
0.823529 0.278431 0.149020
0.866667 0.282353 0.156863
0.905882 0.298039 0.176471
0.960784 0.313725 0.196078
0.996078 0.333333 0.203922
0.992157 0.372549 0.227451
0.090196 0.235294 0.164706
0.086275 0.235294 0.176471
0.101961 0.235294 0.172549
0.125490 0.235294 0.188235
0.141176 0.235294 0.180392
0.156863 0.235294 0.188235
0.172549 0.243137 0.196078
0.188235 0.250980 0.207843
0.211765 0.258824 0.211765
0.239216 0.262745 0.215686
0.282353 0.274510 0.215686
0.329412 0.286275 0.215686
0.407843 0.309804 0.188235
0.474510 0.317647 0.180392
0.549020 0.321569 0.164706
0.623529 0.333333 0.156863
0.678431 0.321569 0.145098
0.737255 0.325490 0.141176
0.784314 0.333333 0.149020
0.827451 0.337255 0.156863
0.866667 0.345098 0.168627
0.913725 0.352941 0.180392
0.964706 0.368627 0.207843
0.992157 0.392157 0.227451
1.000000 0.415686 0.247059
0.149020 0.298039 0.215686
0.149020 0.298039 0.215686
0.149020 0.298039 0.215686
0.168627 0.298039 0.223529
0.184314 0.290196 0.223529
0.203922 0.294118 0.231373
0.223529 0.294118 0.231373
0.250980 0.305882 0.239216
0.262745 0.313725 0.243137
0.286275 0.313725 0.243137
0.317647 0.321569 0.258824
0.349020 0.337255 0.262745
0.415686 0.360784 0.258824
0.482353 0.380392 0.250980
0.556863 0.388235 0.223529
0.623529 0.396078 0.207843
0.682353 0.403922 0.192157
0.749020 0.400000 0.180392
0.807843 0.396078 0.172549
0.847059 0.403922 0.184314
0.886275 0.411765 0.196078
0.929412 0.423529 0.207843
0.968627 0.435294 0.231373
1.000000 0.462745 0.258824
1.000000 0.486275 0.298039
0.184314 0.341176 0.235294
0.184314 0.341176 0.239216
0.196078 0.345098 0.254902
0.223529 0.337255 0.250980
0.223529 0.337255 0.258824
0.247059 0.349020 0.243137
0.270588 0.337255 0.262745
0.274510 0.345098 0.250980
0.301961 0.352941 0.274510
0.329412 0.356863 0.286275
0.356863 0.368627 0.286275
0.388235 0.388235 0.294118
0.415686 0.396078 0.309804
0.470588 0.415686 0.301961
0.541176 0.431373 0.278431
0.607843 0.447059 0.266667
0.674510 0.454902 0.254902
0.741176 0.454902 0.239216
0.796078 0.458824 0.227451
0.850980 0.458824 0.215686
0.890196 0.466667 0.215686
0.933333 0.478431 0.239216
0.976471 0.494118 0.262745
1.000000 0.513725 0.286275
1.000000 0.533333 0.309804
0.235294 0.396078 0.270588
0.223529 0.392157 0.274510
0.243137 0.396078 0.282353
0.258824 0.384314 0.290196
0.262745 0.392157 0.278431
0.286275 0.396078 0.305882
0.313725 0.388235 0.301961
0.329412 0.388235 0.305882
0.341176 0.396078 0.305882
0.356863 0.403922 0.309804
0.388235 0.419608 0.325490
0.411765 0.427451 0.329412
0.443137 0.435294 0.337255
0.482353 0.443137 0.345098
0.529412 0.462745 0.352941
0.596078 0.486275 0.341176
0.662745 0.501961 0.321569
0.721569 0.513725 0.309804
0.780392 0.521569 0.286275
0.831373 0.525490 0.282353
0.890196 0.529412 0.282353
0.941176 0.529412 0.270588
0.960784 0.549020 0.294118
1.000000 0.560784 0.317647
1.000000 0.588235 0.345098
0.274510 0.435294 0.309804
0.286275 0.447059 0.313725
0.298039 0.443137 0.309804
0.294118 0.450980 0.317647
0.325490 0.447059 0.325490
0.333333 0.447059 0.329412
0.345098 0.443137 0.329412
0.368627 0.447059 0.341176
0.372549 0.443137 0.341176
0.407843 0.458824 0.356863
0.423529 0.462745 0.364706
0.450980 0.474510 0.364706
0.478431 0.478431 0.376471
0.509804 0.494118 0.380392
0.541176 0.501961 0.396078
0.584314 0.517647 0.407843
0.654902 0.537255 0.396078
0.717647 0.549020 0.372549
0.764706 0.560784 0.364706
0.811765 0.572549 0.356863
0.862745 0.580392 0.349020
0.921569 0.592157 0.341176
0.964706 0.603922 0.341176
1.000000 0.619608 0.352941
1.000000 0.631373 0.380392
0.317647 0.498039 0.352941
0.337255 0.501961 0.360784
0.341176 0.505882 0.356863
0.352941 0.501961 0.349020
0.356863 0.501961 0.368627
0.376471 0.498039 0.372549
0.392157 0.498039 0.368627
0.411765 0.494118 0.372549
0.431373 0.494118 0.388235
0.447059 0.501961 0.400000
0.470588 0.509804 0.403922
0.501961 0.521569 0.403922
0.517647 0.529412 0.415686
0.549020 0.533333 0.419608
0.568627 0.541176 0.431373
0.600000 0.552941 0.450980
0.639216 0.572549 0.462745
0.690196 0.596078 0.454902
0.741176 0.607843 0.431373
0.803922 0.623529 0.431373
0.854902 0.639216 0.419608
0.898039 0.643137 0.423529
0.941176 0.647059 0.419608
0.988235 0.670588 0.423529
0.996078 0.678431 0.419608
0.400000 0.584314 0.419608
0.415686 0.584314 0.415686
0.427451 0.576471 0.415686
0.439216 0.576471 0.419608
0.435294 0.568627 0.423529
0.447059 0.572549 0.427451
0.462745 0.568627 0.439216
0.478431 0.572549 0.447059
0.498039 0.560784 0.454902
0.517647 0.568627 0.450980
0.533333 0.576471 0.458824
0.545098 0.580392 0.466667
0.572549 0.584314 0.462745
0.600000 0.596078 0.478431
0.619608 0.596078 0.494118
0.650980 0.611765 0.505882
0.674510 0.619608 0.517647
0.701961 0.635294 0.525490
0.745098 0.654902 0.529412
0.800000 0.674510 0.525490
0.854902 0.678431 0.513725
0.898039 0.698039 0.513725
0.929412 0.709804 0.509804
0.968627 0.729412 0.513725
1.000000 0.737255 0.521569
0.454902 0.615686 0.458824
0.466667 0.615686 0.462745
0.474510 0.619608 0.458824
0.474510 0.607843 0.462745
0.482353 0.627451 0.466667
0.498039 0.615686 0.474510
0.513725 0.611765 0.494118
0.533333 0.615686 0.486275
0.549020 0.615686 0.490196
0.556863 0.615686 0.501961
0.576471 0.615686 0.509804
0.600000 0.627451 0.505882
0.615686 0.627451 0.521569
0.631373 0.631373 0.529412
0.654902 0.639216 0.533333
0.674510 0.647059 0.545098
0.701961 0.654902 0.552941
0.713725 0.666667 0.564706
0.741176 0.678431 0.580392
0.792157 0.701961 0.580392
0.843137 0.713725 0.576471
0.886275 0.733333 0.580392
0.921569 0.749020 0.572549
0.960784 0.760784 0.584314
0.988235 0.776471 0.592157
0.517647 0.658824 0.509804
0.529412 0.670588 0.498039
0.533333 0.658824 0.513725
0.545098 0.666667 0.505882
0.556863 0.662745 0.525490
0.552941 0.662745 0.513725
0.568627 0.662745 0.529412
0.576471 0.658824 0.529412
0.584314 0.658824 0.533333
0.600000 0.658824 0.537255
0.623529 0.658824 0.545098
0.639216 0.662745 0.552941
0.650980 0.674510 0.564706
0.658824 0.674510 0.568627
0.686275 0.678431 0.580392
0.709804 0.690196 0.576471
0.721569 0.694118 0.584314
0.741176 0.701961 0.603922
0.768627 0.713725 0.611765
0.792157 0.725490 0.623529
0.835294 0.741176 0.631373
0.874510 0.760784 0.635294
0.913725 0.772549 0.639216
0.949020 0.784314 0.635294
0.984314 0.796078 0.647059
0.584314 0.705882 0.541176
0.588235 0.698039 0.549020
0.596078 0.701961 0.572549
0.600000 0.705882 0.568627
0.603922 0.698039 0.564706
0.619608 0.701961 0.580392
0.627451 0.701961 0.576471
0.623529 0.698039 0.572549
0.643137 0.701961 0.588235
0.658824 0.694118 0.588235
0.666667 0.701961 0.596078
0.666667 0.701961 0.596078
0.690196 0.705882 0.607843
0.705882 0.717647 0.611765
0.729412 0.713725 0.607843
0.745098 0.721569 0.619608
0.756863 0.733333 0.631373
0.776471 0.737255 0.639216
0.792157 0.745098 0.650980
0.811765 0.752941 0.670588
0.831373 0.760784 0.666667
0.874510 0.780392 0.686275
0.890196 0.796078 0.686275
0.941176 0.803922 0.694118
0.976471 0.811765 0.717647
0.647059 0.745098 0.592157
0.643137 0.745098 0.600000
0.643137 0.745098 0.607843
0.658824 0.741176 0.611765
0.662745 0.745098 0.615686
0.662745 0.745098 0.623529
0.670588 0.745098 0.627451
0.682353 0.749020 0.623529
0.698039 0.741176 0.623529
0.701961 0.741176 0.635294
0.701961 0.741176 0.635294
0.709804 0.745098 0.639216
0.733333 0.741176 0.654902
0.749020 0.749020 0.647059
0.745098 0.756863 0.650980
0.760784 0.760784 0.658824
0.788235 0.764706 0.670588
0.811765 0.768627 0.682353
0.819608 0.776471 0.690196
0.843137 0.784314 0.701961
0.850980 0.784314 0.705882
0.878431 0.796078 0.721569
0.905882 0.819608 0.737255
0.929412 0.823529 0.741176
0.952941 0.843137 0.760784
0.721569 0.796078 0.678431
0.729412 0.796078 0.670588
0.725490 0.792157 0.666667
0.733333 0.792157 0.670588
0.725490 0.792157 0.666667
0.733333 0.796078 0.682353
0.737255 0.788235 0.678431
0.752941 0.788235 0.682353
0.745098 0.796078 0.694118
0.756863 0.792157 0.686275
0.764706 0.784314 0.694118
0.772549 0.788235 0.698039
0.784314 0.792157 0.698039
0.800000 0.800000 0.705882
0.800000 0.796078 0.713725
0.823529 0.803922 0.717647
0.843137 0.800000 0.721569
0.854902 0.803922 0.737255
0.858824 0.815686 0.745098
0.870588 0.819608 0.752941
0.890196 0.823529 0.752941
0.901961 0.827451 0.768627
0.917647 0.831373 0.776471
0.941176 0.850980 0.796078
0.964706 0.862745 0.796078
0.760784 0.811765 0.694118
0.764706 0.823529 0.709804
0.768627 0.819608 0.717647
0.776471 0.827451 0.717647
0.772549 0.823529 0.713725
0.788235 0.819608 0.729412
0.784314 0.823529 0.725490
0.800000 0.819608 0.733333
0.803922 0.819608 0.729412
0.807843 0.819608 0.737255
0.807843 0.819608 0.745098
0.819608 0.815686 0.745098
0.827451 0.815686 0.749020
0.843137 0.819608 0.756863
0.854902 0.819608 0.752941
0.858824 0.831373 0.760784
0.878431 0.835294 0.756863
0.878431 0.835294 0.764706
0.886275 0.839216 0.784314
0.898039 0.843137 0.792157
0.917647 0.847059 0.800000
0.921569 0.850980 0.803922
0.941176 0.854902 0.803922
0.937255 0.858824 0.815686
0.976471 0.870588 0.843137
0.815686 0.843137 0.772549
0.831373 0.847059 0.780392
0.827451 0.847059 0.760784
0.815686 0.847059 0.756863
0.831373 0.850980 0.760784
0.823529 0.854902 0.772549
0.835294 0.847059 0.764706
0.843137 0.850980 0.768627
0.843137 0.847059 0.776471
0.854902 0.850980 0.780392
0.858824 0.847059 0.780392
0.862745 0.850980 0.792157
0.870588 0.847059 0.792157
0.882353 0.843137 0.796078
0.886275 0.854902 0.803922
0.898039 0.850980 0.803922
0.905882 0.858824 0.803922
0.901961 0.866667 0.807843
0.917647 0.862745 0.819608
0.937255 0.862745 0.835294
0.941176 0.866667 0.839216
0.941176 0.874510 0.843137
0.945098 0.878431 0.847059
0.956863 0.886275 0.847059
0.964706 0.886275 0.850980
0.862745 0.870588 0.815686
0.862745 0.878431 0.811765
0.882353 0.874510 0.815686
0.866667 0.886275 0.807843
0.886275 0.874510 0.815686
0.874510 0.878431 0.815686
0.882353 0.874510 0.815686
0.886275 0.878431 0.819608
0.882353 0.874510 0.815686
0.894118 0.882353 0.823529
0.890196 0.874510 0.827451
0.901961 0.878431 0.823529
0.921569 0.874510 0.827451
0.909804 0.874510 0.839216
0.917647 0.878431 0.831373
0.921569 0.882353 0.835294
0.925490 0.886275 0.850980
0.937255 0.886275 0.850980
0.945098 0.890196 0.854902
0.949020 0.894118 0.858824
0.960784 0.894118 0.862745
0.960784 0.894118 0.862745
0.964706 0.909804 0.874510
0.976471 0.901961 0.874510
0.972549 0.917647 0.866667
0.901961 0.905882 0.850980
0.901961 0.905882 0.850980
0.913725 0.905882 0.847059
0.917647 0.905882 0.847059
0.917647 0.901961 0.854902
0.917647 0.901961 0.854902
0.917647 0.909804 0.858824
0.921569 0.909804 0.850980
0.925490 0.901961 0.847059
0.929412 0.905882 0.858824
0.933333 0.905882 0.866667
0.941176 0.905882 0.870588
0.937255 0.909804 0.870588
0.945098 0.905882 0.870588
0.949020 0.909804 0.874510
0.952941 0.913725 0.878431
0.960784 0.909804 0.874510
0.968627 0.917647 0.882353
0.964706 0.925490 0.886275
0.980392 0.921569 0.894118
0.964706 0.929412 0.901961
0.984314 0.933333 0.901961
0.984314 0.933333 0.901961
0.996078 0.945098 0.913725
0.984314 0.949020 0.913725
0.000000 0.070588 0.078431
0.000000 0.070588 0.078431
0.000000 0.074510 0.078431
0.011765 0.070588 0.082353
0.027451 0.070588 0.078431
0.050980 0.070588 0.086275
0.074510 0.074510 0.082353
0.098039 0.082353 0.086275
0.145098 0.070588 0.086275
0.184314 0.070588 0.086275
0.231373 0.070588 0.094118
0.282353 0.066667 0.090196
0.333333 0.047059 0.082353
0.396078 0.027451 0.082353
0.462745 0.000000 0.086275
0.521569 0.000000 0.090196
0.596078 0.000000 0.090196
0.647059 0.003922 0.098039
0.717647 0.003922 0.101961
0.792157 0.000000 0.109804
0.847059 0.000000 0.109804
0.890196 0.000000 0.109804
0.937255 0.000000 0.125490
1.000000 0.000000 0.164706
0.996078 0.000000 0.160784
0.000000 0.078431 0.082353
0.000000 0.078431 0.074510
0.000000 0.070588 0.070588
0.015686 0.070588 0.082353
0.019608 0.082353 0.078431
0.043137 0.078431 0.074510
0.074510 0.082353 0.078431
0.105882 0.086275 0.074510
0.137255 0.082353 0.078431
0.184314 0.082353 0.094118
0.235294 0.074510 0.090196
0.286275 0.074510 0.074510
0.337255 0.066667 0.078431
0.400000 0.039216 0.090196
0.458824 0.015686 0.094118
0.525490 0.000000 0.098039
0.588235 0.000000 0.098039
0.662745 0.003922 0.101961
0.725490 0.003922 0.105882
0.784314 0.000000 0.109804
0.850980 0.000000 0.113725
0.898039 0.000000 0.121569
0.937255 0.000000 0.125490
0.988235 0.000000 0.152941
1.000000 0.000000 0.156863
0.000000 0.078431 0.070588
0.000000 0.078431 0.082353
0.003922 0.082353 0.086275
0.011765 0.090196 0.082353
0.031373 0.074510 0.090196
0.054902 0.090196 0.070588
0.074510 0.090196 0.086275
0.109804 0.086275 0.086275
0.149020 0.086275 0.090196
0.192157 0.090196 0.094118
0.243137 0.086275 0.090196
0.294118 0.078431 0.090196
0.349020 0.070588 0.094118
0.403922 0.062745 0.098039
0.466667 0.031373 0.094118
0.529412 0.003922 0.098039
0.611765 0.000000 0.094118
0.662745 0.000000 0.098039
0.721569 0.000000 0.109804
0.784314 0.000000 0.109804
0.847059 0.000000 0.101961
0.894118 0.000000 0.117647
0.945098 0.000000 0.129412
0.996078 0.000000 0.152941
1.000000 0.019608 0.168627
0.000000 0.094118 0.082353
0.000000 0.086275 0.086275
0.011765 0.082353 0.090196
0.007843 0.094118 0.086275
0.015686 0.094118 0.086275
0.050980 0.098039 0.082353
0.090196 0.098039 0.086275
0.121569 0.090196 0.082353
0.156863 0.098039 0.086275
0.203922 0.094118 0.090196
0.250980 0.101961 0.098039
0.294118 0.094118 0.082353
0.349020 0.090196 0.094118
0.415686 0.078431 0.090196
0.474510 0.062745 0.090196
0.545098 0.031373 0.101961
0.607843 0.003922 0.098039
0.662745 0.000000 0.090196
0.721569 0.000000 0.094118
0.780392 0.003922 0.109804
0.835294 0.000000 0.117647
0.894118 0.003922 0.121569
0.937255 0.000000 0.133333
0.984314 0.003922 0.145098
1.000000 0.090196 0.176471
0.003922 0.101961 0.090196
0.000000 0.101961 0.090196
0.011765 0.094118 0.098039
0.003922 0.105882 0.101961
0.007843 0.101961 0.101961
0.039216 0.101961 0.098039
0.078431 0.113725 0.094118
0.121569 0.121569 0.090196
0.172549 0.113725 0.086275
0.211765 0.113725 0.094118
0.262745 0.117647 0.094118
0.309804 0.117647 0.098039
0.368627 0.113725 0.098039
0.423529 0.105882 0.101961
0.490196 0.098039 0.105882
0.552941 0.086275 0.109804
0.607843 0.070588 0.109804
0.666667 0.047059 0.101961
0.733333 0.019608 0.109804
0.784314 0.000000 0.113725
0.843137 0.000000 0.129412
0.890196 0.007843 0.125490
0.945098 0.047059 0.137255
0.984314 0.090196 0.156863
1.000000 0.141176 0.180392
0.000000 0.109804 0.094118
0.007843 0.109804 0.098039
0.019608 0.117647 0.105882
0.019608 0.117647 0.105882
0.031373 0.117647 0.109804
0.043137 0.117647 0.109804
0.082353 0.125490 0.109804
0.117647 0.137255 0.113725
0.176471 0.145098 0.101961
0.223529 0.149020 0.094118
0.278431 0.149020 0.090196
0.329412 0.141176 0.086275
0.388235 0.145098 0.094118
0.450980 0.145098 0.105882
0.517647 0.129412 0.109804
0.576471 0.133333 0.109804
0.631373 0.125490 0.105882
0.690196 0.105882 0.113725
0.749020 0.101961 0.117647
0.800000 0.109804 0.121569
0.854902 0.105882 0.133333
0.905882 0.117647 0.149020
0.949020 0.141176 0.156863
1.000000 0.172549 0.168627
1.000000 0.211765 0.196078
0.000000 0.137255 0.113725
0.015686 0.137255 0.117647
0.007843 0.145098 0.117647
0.035294 0.141176 0.113725
0.054902 0.133333 0.129412
0.062745 0.145098 0.117647
0.086275 0.141176 0.141176
0.113725 0.156863 0.141176
0.168627 0.156863 0.121569
0.231373 0.168627 0.109804
0.286275 0.180392 0.113725
0.349020 0.180392 0.113725
0.407843 0.176471 0.105882
0.474510 0.176471 0.113725
0.525490 0.184314 0.109804
0.580392 0.176471 0.117647
0.647059 0.176471 0.113725
0.709804 0.168627 0.125490
0.760784 0.168627 0.133333
0.807843 0.164706 0.125490
0.858824 0.176471 0.141176
0.917647 0.184314 0.156863
0.960784 0.200000 0.164706
0.992157 0.231373 0.184314
1.000000 0.266667 0.207843
0.019608 0.164706 0.133333
0.023529 0.172549 0.129412
0.054902 0.160784 0.133333
0.050980 0.164706 0.145098
0.086275 0.168627 0.149020
0.090196 0.164706 0.156863
0.109804 0.168627 0.141176
0.129412 0.180392 0.145098
0.164706 0.196078 0.152941
0.211765 0.203922 0.152941
0.282353 0.207843 0.141176
0.352941 0.215686 0.129412
0.423529 0.223529 0.117647
0.486275 0.231373 0.121569
0.541176 0.231373 0.113725
0.592157 0.223529 0.121569
0.654902 0.223529 0.125490
0.709804 0.223529 0.129412
0.768627 0.223529 0.141176
0.811765 0.219608 0.137255
0.862745 0.235294 0.149020
0.909804 0.247059 0.164706
0.952941 0.262745 0.168627
1.000000 0.278431 0.200000
1.000000 0.317647 0.223529
0.050980 0.192157 0.145098
0.070588 0.203922 0.149020
0.078431 0.203922 0.145098
0.090196 0.196078 0.160784
0.109804 0.200000 0.168627
0.117647 0.203922 0.156863
0.137255 0.207843 0.160784
0.164706 0.215686 0.176471
0.180392 0.219608 0.184314
0.219608 0.231373 0.196078
0.270588 0.243137 0.180392
0.345098 0.258824 0.168627
0.423529 0.270588 0.156863
0.490196 0.278431 0.145098
0.545098 0.278431 0.125490
0.603922 0.278431 0.121569
0.654902 0.278431 0.129412
0.717647 0.278431 0.133333
0.772549 0.274510 0.137255
0.823529 0.278431 0.149020
0.866667 0.286275 0.168627
0.909804 0.294118 0.164706
0.960784 0.313725 0.203922
0.996078 0.341176 0.215686
0.992157 0.364706 0.231373
0.090196 0.243137 0.172549
0.105882 0.231373 0.172549
0.105882 0.239216 0.176471
0.117647 0.239216 0.180392
0.145098 0.239216 0.188235
0.156863 0.235294 0.192157
0.172549 0.243137 0.196078
0.188235 0.250980 0.207843
0.211765 0.250980 0.207843
0.239216 0.262745 0.207843
0.282353 0.278431 0.207843
0.337255 0.286275 0.211765
0.407843 0.309804 0.192157
0.478431 0.321569 0.184314
0.549020 0.321569 0.164706
0.611765 0.325490 0.149020
0.674510 0.329412 0.149020
0.729412 0.325490 0.149020
0.776471 0.333333 0.160784
0.823529 0.341176 0.180392
0.874510 0.341176 0.176471
0.925490 0.352941 0.192157
0.964706 0.368627 0.215686
0.996078 0.396078 0.235294
0.996078 0.419608 0.250980
0.133333 0.298039 0.211765
0.141176 0.294118 0.211765
0.160784 0.298039 0.219608
0.172549 0.294118 0.223529
0.188235 0.294118 0.227451
0.200000 0.298039 0.223529
0.215686 0.298039 0.231373
0.235294 0.301961 0.231373
0.254902 0.309804 0.243137
