public/luts/vintage-4.cube
#Generated with IWLTBAP LUT Generator
#Website: http://luts.iwltbap.com
TITLE "Vintage"
#LUT size
LUT_3D_SIZE 5
#LUT data points
0.007843 0.066667 0.078431
0.074510 0.074510 0.074510
0.329412 0.043137 0.078431
0.721569 0.003922 0.090196
1.000000 0.003922 0.149020
0.007843 0.133333 0.121569
0.078431 0.141176 0.129412
0.407843 0.180392 0.094118
0.760784 0.164706 0.121569
1.000000 0.266667 0.200000
0.235294 0.396078 0.270588
0.313725 0.388235 0.301961
0.443137 0.435294 0.337255
0.780392 0.521569 0.286275
1.000000 0.588235 0.345098
0.584314 0.705882 0.541176
0.627451 0.701961 0.576471
0.690196 0.705882 0.607843
0.792157 0.745098 0.650980
0.976471 0.811765 0.717647
0.901961 0.905882 0.850980
0.917647 0.909804 0.858824
0.937255 0.909804 0.870588
0.964706 0.925490 0.886275
0.984314 0.949020 0.913725
0.003922 0.074510 0.129412
0.070588 0.078431 0.129412
0.360784 0.043137 0.168627
0.737255 0.000000 0.200000
1.000000 0.094118 0.266667
0.003922 0.160784 0.156863
0.129412 0.172549 0.180392
0.423529 0.184314 0.203922
0.760784 0.200000 0.223529
1.000000 0.301961 0.298039
0.239216 0.431373 0.317647
0.333333 0.431373 0.345098
0.470588 0.458824 0.384314
0.792157 0.525490 0.349020
1.000000 0.600000 0.423529
0.576471 0.709804 0.572549
0.631373 0.713725 0.584314
0.694118 0.709804 0.619608
0.796078 0.749020 0.662745
0.968627 0.823529 0.709804
0.898039 0.909804 0.835294
0.913725 0.905882 0.854902
0.949020 0.905882 0.882353
0.968627 0.917647 0.886275
1.000000 0.949020 0.925490
0.000000 0.098039 0.329412
0.015686 0.094118 0.333333
0.388235 0.050980 0.392157
0.756863 0.000000 0.427451
1.000000 0.219608 0.474510
0.003922 0.219608 0.372549
0.109804 0.215686 0.392157
0.439216 0.215686 0.431373
0.768627 0.243137 0.443137
1.000000 0.384314 0.513725
0.145098 0.494118 0.478431
0.301961 0.509804 0.486275
0.541176 0.529412 0.509804
0.792157 0.552941 0.533333
1.000000 0.619608 0.576471
0.564706 0.760784 0.654902
0.623529 0.756863 0.658824
0.729412 0.745098 0.686275
0.819608 0.772549 0.717647
0.996078 0.831373 0.737255
0.898039 0.913725 0.854902
0.905882 0.913725 0.862745
0.933333 0.917647 0.870588
0.964706 0.929412 0.901961
0.988235 0.952941 0.933333
0.000000 0.160784 0.647059
0.000000 0.168627 0.650980
0.392157 0.152941 0.690196
0.760784 0.117647 0.698039
0.996078 0.317647 0.737255
0.003922 0.294118 0.666667
0.000000 0.290196 0.662745
0.439216 0.298039 0.690196
0.780392 0.305882 0.717647
0.984314 0.443137 0.737255
0.313725 0.564706 0.701961
0.415686 0.576471 0.701961
0.564706 0.572549 0.721569
0.807843 0.580392 0.737255
0.996078 0.639216 0.760784
0.560784 0.780392 0.768627
0.592157 0.784314 0.772549
0.713725 0.784314 0.784314
0.854902 0.800000 0.796078
1.000000 0.815686 0.800000
0.850980 0.941176 0.870588
0.866667 0.937255 0.882353
0.901961 0.945098 0.890196
0.968627 0.941176 0.917647
1.000000 0.960784 0.952941
0.266667 0.419608 0.917647
0.388235 0.423529 0.921569
0.615686 0.435294 0.925490
0.866667 0.450980 0.929412
1.000000 0.533333 0.933333
0.384314 0.521569 0.921569
0.458824 0.529412 0.921569
0.654902 0.529412 0.925490
0.874510 0.537255 0.933333
0.996078 0.596078 0.933333
0.552941 0.713725 0.925490
0.596078 0.713725 0.925490
0.690196 0.694118 0.917647
0.882353 0.694118 0.937255
0.992157 0.713725 0.941176
0.749020 0.862745 0.925490
0.760784 0.862745 0.929412
0.815686 0.858824 0.937255
0.886275 0.839216 0.933333
0.996078 0.839216 0.945098
0.870588 0.952941 0.964706
0.882353 0.952941 0.960784
0.909804 0.952941 0.960784
0.945098 0.960784 0.964706
0.996078 0.972549 0.972549
