public/luts/vintage-4.cube
#Generated with IWLTBAP LUT Generator
#Website: http://luts.iwltbap.com
TITLE "Vintage"
#LUT size
LUT_3D_SIZE 9
#LUT data points
0.007843 0.066667 0.078431
0.011765 0.066667 0.070588
0.074510 0.074510 0.074510
0.172549 0.070588 0.074510
0.329412 0.043137 0.078431
0.525490 0.003922 0.086275
0.721569 0.003922 0.090196
0.898039 0.000000 0.109804
1.000000 0.003922 0.149020
0.000000 0.094118 0.082353
0.003922 0.082353 0.078431
0.082353 0.101961 0.086275
0.200000 0.101961 0.082353
0.352941 0.086275 0.090196
0.541176 0.027451 0.090196
0.721569 0.000000 0.094118
0.890196 0.000000 0.117647
1.000000 0.074510 0.164706
0.007843 0.133333 0.121569
0.035294 0.141176 0.113725
0.078431 0.141176 0.129412
0.219608 0.168627 0.105882
0.407843 0.180392 0.094118
0.584314 0.168627 0.105882
0.760784 0.164706 0.121569
0.909804 0.188235 0.149020
1.000000 0.266667 0.200000
0.090196 0.235294 0.164706
0.125490 0.235294 0.188235
0.172549 0.243137 0.196078
0.239216 0.262745 0.215686
0.407843 0.309804 0.188235
0.623529 0.333333 0.156863
0.784314 0.333333 0.149020
0.913725 0.352941 0.180392
1.000000 0.415686 0.247059
0.235294 0.396078 0.270588
0.258824 0.384314 0.290196
0.313725 0.388235 0.301961
0.356863 0.403922 0.309804
0.443137 0.435294 0.337255
0.596078 0.486275 0.341176
0.780392 0.521569 0.286275
0.941176 0.529412 0.270588
1.000000 0.588235 0.345098
0.400000 0.584314 0.419608
0.439216 0.576471 0.419608
0.462745 0.568627 0.439216
0.517647 0.568627 0.450980
0.572549 0.584314 0.462745
0.650980 0.611765 0.505882
0.745098 0.654902 0.529412
0.898039 0.698039 0.513725
1.000000 0.737255 0.521569
0.584314 0.705882 0.541176
0.600000 0.705882 0.568627
0.627451 0.701961 0.576471
0.658824 0.694118 0.588235
0.690196 0.705882 0.607843
0.745098 0.721569 0.619608
0.792157 0.745098 0.650980
0.874510 0.780392 0.686275
0.976471 0.811765 0.717647
0.760784 0.811765 0.694118
0.776471 0.827451 0.717647
0.784314 0.823529 0.725490
0.807843 0.819608 0.737255
0.827451 0.815686 0.749020
0.858824 0.831373 0.760784
0.886275 0.839216 0.784314
0.921569 0.850980 0.803922
0.976471 0.870588 0.843137
0.901961 0.905882 0.850980
0.917647 0.905882 0.847059
0.917647 0.909804 0.858824
0.929412 0.905882 0.858824
0.937255 0.909804 0.870588
0.952941 0.913725 0.878431
0.964706 0.925490 0.886275
0.984314 0.933333 0.901961
0.984314 0.949020 0.913725
0.000000 0.070588 0.094118
0.003922 0.074510 0.090196
0.074510 0.078431 0.094118
0.188235 0.074510 0.094118
0.349020 0.047059 0.109804
0.529412 0.000000 0.117647
0.721569 0.000000 0.133333
0.890196 0.003922 0.152941
1.000000 0.000000 0.188235
0.000000 0.094118 0.082353
0.003922 0.098039 0.105882
0.074510 0.098039 0.098039
0.203922 0.101961 0.105882
0.352941 0.090196 0.117647
0.549020 0.043137 0.121569
0.721569 0.000000 0.133333
0.890196 0.003922 0.152941
1.000000 0.105882 0.203922
0.003922 0.149020 0.121569
0.047059 0.152941 0.133333
0.090196 0.152941 0.149020
0.247059 0.176471 0.121569
0.407843 0.188235 0.129412
0.584314 0.180392 0.145098
0.760784 0.176471 0.152941
0.898039 0.196078 0.180392
1.000000 0.270588 0.223529
0.098039 0.247059 0.188235
0.125490 0.250980 0.192157
0.180392 0.247059 0.207843
0.247059 0.270588 0.231373
0.415686 0.313725 0.215686
0.619608 0.333333 0.172549
0.780392 0.341176 0.192157
0.921569 0.364706 0.223529
1.000000 0.427451 0.282353
0.219608 0.400000 0.286275
0.250980 0.403922 0.290196
0.309804 0.396078 0.313725
0.368627 0.415686 0.329412
0.447059 0.439216 0.341176
0.596078 0.482353 0.349020
0.788235 0.513725 0.309804
0.929412 0.537255 0.301961
1.000000 0.588235 0.364706
0.400000 0.576471 0.423529
0.423529 0.572549 0.427451
0.466667 0.568627 0.431373
0.513725 0.572549 0.458824
0.580392 0.592157 0.486275
0.647059 0.611765 0.498039
0.749020 0.650980 0.529412
0.898039 0.698039 0.513725
0.996078 0.741176 0.521569
0.584314 0.701961 0.568627
0.596078 0.701961 0.564706
0.619608 0.694118 0.576471
0.647059 0.698039 0.588235
0.694118 0.701961 0.607843
0.733333 0.725490 0.627451
0.792157 0.745098 0.643137
0.866667 0.780392 0.686275
0.972549 0.831373 0.705882
0.760784 0.819608 0.690196
0.784314 0.823529 0.725490
0.776471 0.827451 0.717647
0.800000 0.819608 0.733333
0.831373 0.819608 0.745098
0.854902 0.827451 0.764706
0.886275 0.839216 0.784314
0.921569 0.850980 0.803922
0.952941 0.874510 0.831373
0.909804 0.901961 0.843137
0.909804 0.905882 0.835294
0.917647 0.909804 0.858824
0.925490 0.909804 0.862745
0.937255 0.901961 0.866667
0.949020 0.913725 0.878431
0.960784 0.921569 0.882353
0.984314 0.933333 0.898039
0.992157 0.949020 0.925490
0.003922 0.074510 0.129412
0.000000 0.082353 0.125490
0.070588 0.078431 0.129412
0.192157 0.078431 0.149020
0.360784 0.043137 0.168627
0.541176 0.003922 0.184314
0.737255 0.000000 0.200000
0.894118 0.003922 0.223529
1.000000 0.094118 0.266667
0.000000 0.098039 0.125490
0.003922 0.098039 0.137255
0.086275 0.101961 0.149020
0.211765 0.105882 0.164706
0.376471 0.094118 0.180392
0.552941 0.062745 0.188235
0.741176 0.011765 0.207843
0.901961 0.039216 0.227451
1.000000 0.156863 0.290196
0.003922 0.160784 0.156863
0.011765 0.168627 0.164706
0.129412 0.172549 0.180392
0.250980 0.188235 0.188235
0.423529 0.184314 0.203922
0.592157 0.196078 0.219608
0.760784 0.200000 0.223529
0.909804 0.231373 0.254902
1.000000 0.301961 0.298039
0.031373 0.282353 0.219608
0.113725 0.278431 0.223529
0.203922 0.282353 0.247059
0.274510 0.294118 0.266667
0.443137 0.333333 0.247059
0.623529 0.341176 0.243137
0.788235 0.356863 0.258824
0.913725 0.380392 0.294118
1.000000 0.447059 0.341176
0.239216 0.431373 0.317647
0.258824 0.435294 0.321569
0.333333 0.431373 0.345098
0.388235 0.431373 0.364706
0.470588 0.458824 0.384314
0.615686 0.501961 0.376471
0.792157 0.525490 0.349020
0.925490 0.549020 0.360784
1.000000 0.600000 0.423529
0.415686 0.596078 0.450980
0.435294 0.592157 0.454902
0.482353 0.588235 0.466667
0.529412 0.584314 0.486275
0.588235 0.596078 0.509804
0.654902 0.627451 0.525490
0.760784 0.662745 0.541176
0.898039 0.698039 0.529412
1.000000 0.733333 0.541176
0.576471 0.709804 0.572549
0.592157 0.717647 0.564706
0.631373 0.713725 0.584314
0.654902 0.705882 0.603922
0.694118 0.709804 0.619608
0.741176 0.733333 0.635294
0.796078 0.749020 0.662745
0.870588 0.792157 0.698039
0.968627 0.823529 0.709804
0.760784 0.823529 0.717647
0.772549 0.827451 0.729412
0.780392 0.827451 0.741176
0.800000 0.831373 0.741176
0.827451 0.819608 0.760784
0.858824 0.827451 0.776471
0.886275 0.839216 0.784314
0.925490 0.854902 0.807843
0.964706 0.870588 0.854902
0.898039 0.909804 0.835294
0.905882 0.909804 0.854902
0.913725 0.905882 0.854902
0.933333 0.909804 0.862745
0.949020 0.905882 0.882353
0.949020 0.913725 0.878431
0.968627 0.917647 0.886275
0.972549 0.937255 0.901961
1.000000 0.949020 0.925490
0.000000 0.082353 0.203922
0.003922 0.082353 0.211765
0.050980 0.082353 0.223529
0.207843 0.078431 0.247059
0.380392 0.047059 0.270588
0.564706 0.000000 0.282353
0.749020 0.003922 0.294118
0.898039 0.000000 0.325490
1.000000 0.188235 0.368627
0.000000 0.113725 0.223529
0.000000 0.117647 0.227451
0.074510 0.117647 0.243137
0.219608 0.109804 0.258824
0.384314 0.098039 0.278431
0.576471 0.058824 0.286275
0.752941 0.031373 0.305882
0.894118 0.113725 0.329412
0.996078 0.235294 0.380392
0.007843 0.184314 0.266667
0.000000 0.184314 0.254902
0.129412 0.192157 0.282353
0.278431 0.192157 0.282353
0.439216 0.203922 0.305882
0.607843 0.203922 0.309804
0.772549 0.223529 0.337255
0.913725 0.270588 0.368627
1.000000 0.341176 0.392157
0.000000 0.305882 0.294118
0.054902 0.305882 0.305882
0.184314 0.325490 0.317647
0.325490 0.333333 0.329412
0.478431 0.341176 0.333333
0.631373 0.356863 0.356863
0.784314 0.376471 0.364706
0.913725 0.411765 0.400000
1.000000 0.474510 0.439216
0.145098 0.474510 0.372549
0.211765 0.478431 0.388235
0.325490 0.478431 0.396078
0.427451 0.474510 0.419608
0.513725 0.490196 0.443137
0.662745 0.525490 0.439216
0.800000 0.537255 0.423529
0.921569 0.560784 0.462745
1.000000 0.611765 0.494118
0.415686 0.627451 0.501961
0.443137 0.627451 0.494118
0.494118 0.623529 0.517647
0.556863 0.615686 0.525490
0.611765 0.615686 0.545098
0.674510 0.639216 0.572549
0.776471 0.682353 0.580392
0.913725 0.709804 0.564706
0.992157 0.741176 0.568627
0.596078 0.733333 0.615686
0.603922 0.741176 0.615686
0.631373 0.729412 0.611765
0.674510 0.725490 0.623529
0.709804 0.721569 0.639216
0.752941 0.741176 0.666667
0.807843 0.764706 0.694118
0.894118 0.796078 0.709804
0.984314 0.827451 0.729412
0.752941 0.831373 0.725490
0.752941 0.831373 0.733333
0.780392 0.835294 0.737255
0.811765 0.831373 0.752941
0.835294 0.827451 0.768627
0.866667 0.831373 0.772549
0.894118 0.847059 0.800000
0.929412 0.854902 0.827451
0.972549 0.874510 0.847059
0.894118 0.917647 0.862745
0.901961 0.909804 0.854902
0.921569 0.913725 0.854902
0.925490 0.909804 0.862745
0.945098 0.909804 0.874510
0.949020 0.913725 0.886275
0.960784 0.925490 0.898039
0.988235 0.937255 0.913725
0.992157 0.949020 0.925490
0.000000 0.098039 0.329412
0.000000 0.094118 0.329412
0.015686 0.094118 0.333333
0.196078 0.098039 0.364706
0.388235 0.050980 0.392157
0.584314 0.000000 0.419608
0.756863 0.000000 0.427451
0.901961 0.043137 0.443137
1.000000 0.219608 0.474510
0.007843 0.129412 0.345098
0.000000 0.129412 0.341176
0.019608 0.133333 0.352941
0.223529 0.125490 0.380392
0.392157 0.109804 0.396078
0.580392 0.078431 0.411765
0.756863 0.070588 0.427451
0.901961 0.149020 0.450980
1.000000 0.266667 0.474510
0.003922 0.219608 0.372549
0.000000 0.227451 0.384314
0.109804 0.215686 0.392157
0.278431 0.211765 0.415686
0.439216 0.215686 0.431373
0.627451 0.215686 0.447059
0.768627 0.243137 0.443137
0.909804 0.290196 0.478431
1.000000 0.384314 0.513725
0.000000 0.341176 0.419608
0.082353 0.345098 0.419608
0.211765 0.349020 0.427451
0.325490 0.356863 0.439216
0.490196 0.356863 0.454902
0.647059 0.372549 0.474510
0.776471 0.403922 0.482353
0.901961 0.443137 0.505882
1.000000 0.490196 0.537255
0.145098 0.494118 0.478431
0.215686 0.498039 0.486275
0.301961 0.509804 0.486275
0.415686 0.513725 0.498039
0.541176 0.529412 0.509804
0.670588 0.541176 0.513725
0.792157 0.552941 0.533333
0.913725 0.584314 0.545098
1.000000 0.619608 0.576471
0.352941 0.658824 0.564706
0.384314 0.658824 0.564706
0.450980 0.654902 0.564706
0.549020 0.654902 0.580392
0.635294 0.650980 0.596078
0.694118 0.654902 0.615686
0.815686 0.694118 0.615686
0.925490 0.705882 0.607843
1.000000 0.749020 0.643137
0.564706 0.760784 0.654902
0.588235 0.756863 0.647059
0.623529 0.756863 0.658824
0.678431 0.756863 0.658824
0.729412 0.745098 0.686275
0.764706 0.752941 0.694118
0.819608 0.772549 0.717647
0.901961 0.800000 0.733333
0.996078 0.831373 0.737255
0.745098 0.843137 0.756863
0.752941 0.839216 0.749020
0.784314 0.843137 0.760784
0.807843 0.843137 0.760784
0.835294 0.839216 0.776471
0.874510 0.835294 0.796078
0.890196 0.850980 0.811765
0.933333 0.862745 0.823529
0.968627 0.886275 0.866667
0.898039 0.913725 0.854902
0.894118 0.917647 0.862745
0.905882 0.913725 0.862745
0.909804 0.917647 0.862745
0.933333 0.917647 0.870588
0.949020 0.921569 0.882353
0.964706 0.929412 0.901961
0.980392 0.941176 0.905882
0.988235 0.952941 0.933333
0.003922 0.121569 0.466667
0.000000 0.121569 0.478431
0.003922 0.125490 0.490196
0.168627 0.121569 0.513725
0.392157 0.082353 0.533333
0.576471 0.019608 0.545098
0.760784 0.003922 0.564706
0.909804 0.121569 0.576471
1.000000 0.258824 0.611765
0.000000 0.156863 0.498039
0.007843 0.156863 0.482353
0.000000 0.160784 0.498039
0.207843 0.156863 0.517647
0.407843 0.129412 0.529412
0.592157 0.109804 0.564706
0.756863 0.121569 0.560784
0.909804 0.188235 0.572549
1.000000 0.309804 0.603922
0.000000 0.262745 0.517647
0.000000 0.250980 0.529412
0.031373 0.243137 0.525490
0.254902 0.239216 0.537255
0.435294 0.243137 0.560784
0.611765 0.243137 0.580392
0.776471 0.262745 0.576471
0.917647 0.313725 0.596078
1.000000 0.403922 0.627451
0.000000 0.388235 0.552941
0.113725 0.384314 0.545098
0.227451 0.392157 0.556863
0.329412 0.384314 0.568627
0.478431 0.384314 0.572549
0.650980 0.388235 0.596078
0.792157 0.415686 0.596078
0.909804 0.458824 0.619608
1.000000 0.513725 0.647059
0.211765 0.521569 0.588235
0.247059 0.529412 0.588235
0.349020 0.525490 0.600000
0.450980 0.541176 0.603922
0.549020 0.545098 0.600000
0.678431 0.549020 0.623529
0.796078 0.568627 0.627451
0.909804 0.592157 0.658824
1.000000 0.619608 0.654902
0.384314 0.662745 0.639216
0.415686 0.658824 0.639216
0.466667 0.666667 0.647059
0.537255 0.662745 0.643137
0.623529 0.670588 0.654902
0.717647 0.682353 0.662745
0.823529 0.694118 0.666667
0.929412 0.701961 0.686275
0.992157 0.737255 0.721569
0.513725 0.772549 0.717647
0.529412 0.780392 0.713725
0.568627 0.780392 0.717647
0.627451 0.772549 0.701961
0.709804 0.776471 0.705882
0.788235 0.772549 0.737255
0.835294 0.784314 0.752941
0.917647 0.815686 0.756863
1.000000 0.819608 0.756863
0.721569 0.854902 0.788235
0.729412 0.858824 0.784314
0.749020 0.854902 0.788235
0.784314 0.858824 0.784314
0.835294 0.850980 0.796078
0.866667 0.850980 0.803922
0.894118 0.854902 0.819608
0.937255 0.866667 0.850980
0.984314 0.890196 0.850980
0.874510 0.929412 0.878431
0.878431 0.929412 0.858824
0.886275 0.929412 0.866667
0.905882 0.933333 0.870588
0.925490 0.925490 0.878431
0.949020 0.933333 0.890196
0.968627 0.933333 0.905882
0.980392 0.937255 0.913725
0.988235 0.952941 0.933333
0.000000 0.160784 0.647059
0.000000 0.168627 0.650980
0.000000 0.168627 0.650980
0.164706 0.160784 0.662745
0.392157 0.152941 0.690196
0.584314 0.121569 0.694118
0.760784 0.117647 0.698039
0.905882 0.184314 0.709804
0.996078 0.317647 0.737255
0.000000 0.203922 0.650980
0.000000 0.203922 0.650980
0.000000 0.203922 0.658824
0.200000 0.207843 0.674510
0.396078 0.192157 0.686275
0.600000 0.180392 0.698039
0.756863 0.184314 0.705882
0.905882 0.243137 0.701961
1.000000 0.356863 0.737255
0.003922 0.294118 0.666667
0.000000 0.286275 0.674510
0.000000 0.290196 0.662745
0.270588 0.294118 0.678431
0.439216 0.298039 0.690196
0.615686 0.290196 0.698039
0.780392 0.305882 0.717647
0.905882 0.352941 0.729412
0.984314 0.443137 0.737255
0.129412 0.435294 0.686275
0.180392 0.439216 0.678431
0.274510 0.435294 0.694118
0.352941 0.427451 0.694118
0.505882 0.427451 0.705882
0.650980 0.431373 0.717647
0.800000 0.447059 0.729412
0.913725 0.478431 0.737255
1.000000 0.541176 0.756863
0.313725 0.564706 0.701961
0.333333 0.572549 0.694118
0.415686 0.576471 0.701961
0.486275 0.576471 0.701961
0.564706 0.572549 0.721569
0.682353 0.576471 0.737255
0.807843 0.580392 0.737255
0.909804 0.603922 0.756863
0.996078 0.639216 0.760784
0.454902 0.686275 0.749020
0.478431 0.686275 0.741176
0.505882 0.694118 0.741176
0.580392 0.694118 0.749020
0.639216 0.705882 0.745098
0.721569 0.698039 0.745098
0.831373 0.698039 0.764706
0.925490 0.713725 0.768627
1.000000 0.737255 0.796078
0.560784 0.780392 0.768627
0.572549 0.776471 0.760784
0.592157 0.784314 0.772549
0.643137 0.784314 0.768627
0.713725 0.784314 0.784314
0.776471 0.792157 0.788235
0.854902 0.800000 0.796078
0.937255 0.803922 0.800000
1.000000 0.815686 0.800000
0.690196 0.870588 0.827451
0.701961 0.874510 0.823529
0.705882 0.870588 0.831373
0.752941 0.870588 0.831373
0.807843 0.866667 0.839216
0.858824 0.870588 0.835294
0.901961 0.866667 0.839216
0.949020 0.878431 0.870588
0.988235 0.898039 0.874510
0.850980 0.941176 0.870588
0.854902 0.933333 0.886275
0.866667 0.937255 0.882353
0.886275 0.941176 0.890196
0.901961 0.945098 0.890196
0.933333 0.937255 0.905882
0.968627 0.941176 0.917647
0.984314 0.949020 0.929412
1.000000 0.960784 0.952941
0.003922 0.250980 0.796078
0.003922 0.247059 0.807843
0.007843 0.254902 0.807843
0.231373 0.250980 0.811765
0.439216 0.250980 0.815686
0.619608 0.250980 0.823529
0.792157 0.250980 0.831373
0.929412 0.294118 0.835294
1.000000 0.384314 0.843137
0.000000 0.282353 0.796078
0.000000 0.286275 0.807843
0.000000 0.286275 0.800000
0.278431 0.290196 0.811765
0.458824 0.294118 0.827451
0.635294 0.290196 0.831373
0.800000 0.286275 0.827451
0.937255 0.337255 0.835294
1.000000 0.407843 0.835294
0.000000 0.372549 0.811765
0.000000 0.368627 0.811765
0.176471 0.380392 0.819608
0.345098 0.372549 0.819608
0.501961 0.372549 0.815686
0.650980 0.388235 0.831373
0.811765 0.384314 0.843137
0.937255 0.427451 0.843137
1.000000 0.478431 0.827451
0.290196 0.509804 0.811765
0.309804 0.513725 0.811765
0.333333 0.498039 0.819608
0.435294 0.494118 0.827451
0.560784 0.501961 0.827451
0.682353 0.505882 0.831373
0.823529 0.498039 0.843137
0.929412 0.525490 0.850980
1.000000 0.564706 0.854902
0.407843 0.635294 0.815686
0.427451 0.639216 0.823529
0.466667 0.631373 0.827451
0.529412 0.639216 0.827451
0.611765 0.615686 0.835294
0.717647 0.619608 0.843137
0.831373 0.611765 0.850980
0.937255 0.627451 0.843137
1.000000 0.658824 0.847059
0.525490 0.749020 0.827451
0.552941 0.741176 0.831373
0.560784 0.741176 0.835294
0.615686 0.741176 0.839216
0.670588 0.737255 0.839216
0.745098 0.725490 0.843137
0.847059 0.725490 0.850980
0.941176 0.729412 0.854902
0.988235 0.752941 0.854902
0.627451 0.815686 0.854902
0.639216 0.811765 0.854902
0.650980 0.819608 0.854902
0.701961 0.819608 0.858824
0.745098 0.815686 0.854902
0.807843 0.819608 0.854902
0.866667 0.811765 0.862745
0.945098 0.819608 0.870588
0.992157 0.835294 0.878431
0.741176 0.870588 0.890196
0.745098 0.870588 0.866667
0.756863 0.874510 0.874510
0.784314 0.878431 0.878431
0.819608 0.874510 0.878431
0.858824 0.882353 0.882353
0.898039 0.882353 0.878431
0.956863 0.886275 0.886275
1.000000 0.894118 0.894118
0.843137 0.949020 0.921569
0.835294 0.949020 0.933333
0.847059 0.952941 0.925490
0.866667 0.949020 0.921569
0.894118 0.952941 0.933333
0.913725 0.956863 0.925490
0.949020 0.960784 0.933333
0.976471 0.960784 0.949020
0.996078 0.956863 0.949020
0.266667 0.419608 0.917647
0.305882 0.427451 0.925490
0.388235 0.423529 0.921569
0.494118 0.427451 0.929412
0.615686 0.435294 0.925490
0.741176 0.443137 0.937255
0.866667 0.450980 0.929412
0.976471 0.470588 0.933333
1.000000 0.533333 0.933333
0.305882 0.458824 0.925490
0.337255 0.458824 0.917647
0.400000 0.458824 0.925490
0.509804 0.466667 0.929412
0.619608 0.466667 0.933333
0.756863 0.470588 0.929412
0.870588 0.486275 0.929412
0.972549 0.490196 0.937255
0.996078 0.545098 0.941176
0.384314 0.521569 0.921569
0.411765 0.525490 0.917647
0.458824 0.529412 0.921569
0.545098 0.525490 0.917647
0.654902 0.529412 0.925490
0.764706 0.537255 0.929412
0.874510 0.537255 0.933333
0.968627 0.545098 0.933333
0.996078 0.596078 0.933333
0.482353 0.623529 0.921569
0.482353 0.623529 0.921569
0.521569 0.611765 0.925490
0.588235 0.607843 0.925490
0.682353 0.615686 0.929412
0.772549 0.603922 0.925490
0.878431 0.607843 0.925490
0.972549 0.611765 0.937255
1.000000 0.647059 0.937255
0.552941 0.713725 0.925490
0.549020 0.709804 0.921569
0.596078 0.713725 0.925490
0.639216 0.705882 0.925490
0.690196 0.694118 0.917647
0.792157 0.690196 0.929412
0.882353 0.694118 0.937255
0.952941 0.694118 0.937255
0.992157 0.713725 0.941176
0.650980 0.803922 0.917647
0.662745 0.807843 0.921569
0.666667 0.803922 0.929412
0.701961 0.788235 0.933333
0.745098 0.784314 0.925490
0.796078 0.772549 0.921569
0.878431 0.772549 0.933333
0.960784 0.768627 0.952941
0.996078 0.780392 0.945098
0.749020 0.862745 0.925490
0.756863 0.862745 0.929412
0.760784 0.862745 0.929412
0.784314 0.854902 0.933333
0.815686 0.858824 0.937255
0.843137 0.847059 0.929412
0.886275 0.839216 0.933333
0.945098 0.843137 0.956863
0.996078 0.839216 0.945098
0.819608 0.917647 0.945098
0.831373 0.909804 0.945098
0.839216 0.909804 0.949020
0.850980 0.905882 0.949020
0.870588 0.909804 0.956863
0.894118 0.909804 0.956863
0.921569 0.909804 0.952941
0.960784 0.905882 0.956863
1.000000 0.901961 0.968627
0.870588 0.952941 0.964706
0.878431 0.956863 0.960784
0.882353 0.952941 0.960784
0.894118 0.952941 0.964706
0.909804 0.952941 0.960784
0.921569 0.952941 0.964706
0.945098 0.960784 0.964706
0.968627 0.968627 0.968627
0.996078 0.972549 0.972549
